static/assets/images/products/kubestash/addons/proxysql-stash-addon.svg

<svg width="32" height="32" viewBox="0 0 32 32" fill="none" xmlns="http://www.w3.org/2000/svg">
<g clip-path="url(#clip0)">
<path opacity="0.3" d="M6.5592 19.4865C6.65472 19.6457 6.78208 19.8368 6.90944 19.996C7.16417 20.187 7.4189 20.4099 7.67362 20.6328C7.83283 20.792 8.15123 20.9193 8.40596 20.9193C8.53332 20.9193 8.62885 20.9193 8.75621 20.9512C7.99203 20.3462 7.32337 19.6457 6.7184 18.8815C6.11342 18.1173 5.66765 17.3213 5.41293 16.3661C5.1582 14.8059 5.09452 13.2139 5.28556 11.6218C5.09452 12.7044 4.87163 13.7552 4.96716 14.8696C5.12636 16.4935 5.66765 18.0855 6.5592 19.4865Z" fill="#1971BD"/>
<path opacity="0.3" d="M25.3771 15.5065C25.3453 15.3791 25.2816 15.2517 25.2179 15.1244C24.6448 13.787 23.6577 12.6089 22.4478 11.8129C21.1423 10.9214 19.4866 10.3801 17.9264 10.3482C17.0985 10.3164 16.3025 10.4438 15.5065 10.6348C15.0925 10.7303 14.7105 10.8577 14.3284 11.0169C13.9463 11.1443 13.5642 11.4308 13.1821 11.5264C13.0866 11.5582 12.991 11.5264 12.9274 11.4627C12.6726 11.2398 12.8 10.6667 12.9274 10.3801C13.1184 9.99799 13.405 9.64775 13.7552 9.39302C15.9841 7.60994 19.0726 7.54625 21.7473 8.08755C21.9702 8.15123 22.2249 8.18307 22.4478 8.24675L22.4796 8.15123C22.3841 8.08755 22.2567 8.02387 22.1612 7.99203C20.0279 7.38705 17.8308 7.196 15.6657 7.80098C13.1503 8.50148 10.5075 10.2527 9.61592 12.8318C9.10647 14.3283 9.29752 16.0477 9.99801 17.4487C10.8896 19.2 12.7045 20.7602 14.6468 21.1741C14.8697 21.2378 15.0925 21.2696 15.3154 21.3333C15.3791 21.3652 15.4109 21.397 15.4428 21.4607C15.4428 21.4925 15.3791 21.5562 15.3473 21.588C14.2647 22.2885 13.0229 22.5114 11.7811 22.2885C12.1313 22.6388 12.4179 23.0846 12.609 23.5622C14.3602 23.9124 16.207 23.7851 17.8627 23.0209C18.9453 22.5433 19.9005 21.8428 20.6965 20.9831C22.0657 19.5184 22.9891 17.4169 23.0209 15.3791C23.0209 15.2836 23.0527 15.2199 23.1164 15.1562C23.1801 15.188 23.2438 15.2199 23.3075 15.2836C24.7403 16.398 24.9632 18.6905 24.6129 20.3144C24.2309 22.0657 23.2438 23.594 22.002 24.8358C21.9065 24.9313 21.8109 25.0587 21.7473 25.1542C21.8109 25.1861 21.9065 25.1861 21.9702 25.1542C22.193 24.995 22.4159 24.8358 22.6388 24.6448C25.1224 22.4477 26.5234 18.7542 25.3771 15.5065Z" fill="#1971BD"/>
<path d="M20.6965 15.9205C20.6647 15.7932 20.6328 15.6658 20.5692 15.5384C20.2508 14.8061 19.6776 14.1693 18.9453 13.819C18.3403 13.5325 17.6717 13.4051 17.003 13.4369C16.6846 13.4688 16.3343 13.5006 16.0159 13.5961C15.7294 13.6598 15.4746 13.8509 15.2199 13.9146C15.1881 13.9146 15.1244 13.9146 15.0925 13.8827C14.8378 13.6598 15.2199 13.2141 15.3473 13.0549C15.602 12.832 15.8886 12.6409 16.207 12.5454C16.7164 12.3544 17.2259 12.2588 17.7672 12.2588C18.0537 12.2588 18.3403 12.2907 18.595 12.3225C18.8179 12.3544 19.0726 12.4499 19.2955 12.418C19.2637 12.3862 19.2 12.3544 19.1363 12.3544C17.608 11.7812 15.7294 12.1633 14.5194 13.2141C14.1055 13.5643 13.7552 14.0101 13.596 14.5195C13.3731 15.1882 13.4368 15.9524 13.7871 16.5892C14.201 17.3534 14.997 18.0539 15.8249 18.2449C15.9204 18.2767 16.0159 18.2767 16.1115 18.3086C16.1433 18.3086 16.1433 18.3404 16.1751 18.3723C16.1751 18.3723 16.1433 18.4041 16.1433 18.4359C16.0796 18.4678 16.0159 18.5315 15.9522 18.5633C15.3791 18.8817 14.6468 18.8499 14.0418 18.5952C13.5005 18.3723 13.0547 18.022 12.6726 17.6081C12.3542 17.2897 12.0677 16.9076 11.9085 16.4937C11.5901 15.6976 11.6537 14.8379 11.7174 13.9782C11.6856 14.4558 11.5582 14.9016 11.5901 15.4111C11.6219 15.825 11.6856 16.2071 11.8129 16.5892C12.0995 17.3534 12.5771 18.022 13.2139 18.4996C14.1055 19.2001 15.2517 19.5185 16.3662 19.3275C17.7353 19.1046 18.9134 18.1175 19.3592 16.7802C19.4866 16.43 19.5503 16.0479 19.5503 15.6658C19.5503 15.634 19.5821 15.6021 19.5821 15.5703C19.6139 15.5703 19.6458 15.6021 19.6776 15.634C20.2189 16.1753 20.41 16.9076 20.2826 17.6399C20.1552 18.4996 19.7095 19.232 19.0726 19.8369C19.0408 19.8688 18.9771 19.9325 18.9453 19.9643C18.9771 19.9961 19.009 19.9961 19.0408 19.9643C19.1363 19.9006 19.2318 19.8051 19.3274 19.7414C20.4736 18.818 21.0786 17.3534 20.6965 15.9205Z" fill="#1971BD"/>
<path d="M31.7134 13.4687C31.5542 13.2139 31.3632 12.9592 31.204 12.7363C31.1085 12.609 30.9811 12.4816 30.9493 12.2905C30.7582 11.4308 30.4398 10.603 30.0896 9.83881C29.7075 9.01095 29.2935 8.21492 28.7841 7.48259C28.5294 7.1005 28.2746 6.75025 27.9881 6.4C27.8607 6.20896 27.7015 6.04975 27.5741 5.89055C27.4468 5.73134 27.2239 5.60398 27.1602 5.41294C27.1284 5.31741 27.0328 5.12637 27.0328 5.12637L26.8099 4.58507C26.7463 4.42587 26.6826 4.26667 26.6189 4.1393C26.5871 4.07562 26.5552 4.04378 26.4915 4.01194H26.396C26.2687 4.01194 26.0776 3.94826 25.9502 3.91642C25.7274 3.88458 25.5363 3.85274 25.3134 3.78905C25.2498 3.75721 25.1861 3.75721 25.1542 3.69353L24.995 3.56617C24.2308 3.02488 23.4348 2.51542 22.5751 2.10149C21.7473 1.7194 20.8876 1.36915 20.0279 1.14627C19.5821 1.01891 19.1363 0.923383 18.6905 0.827861C18.3085 0.764179 17.8308 0.636816 17.4169 0.668657C17.3214 0.668657 17.2259 0.668657 17.1303 0.604975C16.8119 0.477612 16.4935 0.286567 16.207 0.127363C16.1433 0.0955224 16.0796 0 15.9841 0C15.9522 0 15.8567 0.0318408 15.8567 0.0318408C15.5701 0.191045 15.3154 0.318408 15.0289 0.477612C14.9015 0.477612 14.7423 0.604975 14.6149 0.604975C14.4876 0.604975 14.3284 0.636816 14.201 0.636816C13.8826 0.668657 13.5642 0.700498 13.2139 0.764179C11.3035 1.08259 9.45672 1.81493 7.801 2.83383C7.57811 2.96119 7.38707 3.08856 7.19602 3.24776L7.1005 3.31144C6.97313 3.40697 6.84577 3.50249 6.71841 3.59801C6.68657 3.62985 6.65473 3.62985 6.62289 3.62985C6.36816 3.69353 6.08159 3.75721 5.79503 3.78905C5.63582 3.8209 5.41294 3.8209 5.31741 4.01194C5.12637 4.42587 5.06269 4.90348 4.74428 5.25373C4.23483 5.85871 3.72537 6.43184 3.24776 7.06866C2.19702 8.56517 1.46468 10.1891 0.955225 11.9085C0.923384 12.0358 0.891543 12.1632 0.859702 12.2587C0.827862 12.3542 0.796021 12.4179 0.732339 12.4816C0.573135 12.7363 0.35025 13.0229 0.127364 13.2776C-0.159203 13.596 0.159205 14.0418 0.254727 14.392C0.318409 14.5831 0.35025 14.7741 0.38209 14.9652C0.38209 15.0607 0.38209 15.1562 0.38209 15.2517C0.38209 15.8886 0.35025 16.5254 0.413931 17.1622C0.445772 17.7672 0.541294 18.404 0.636817 18.9771C0.827862 18.9134 1.01891 18.8498 1.20995 18.8179C1.81493 18.6905 2.38806 18.6269 2.92935 18.6269C2.89751 18.404 2.83383 18.1811 2.80199 17.9264C2.73831 17.4488 2.70647 16.9711 2.67463 16.4935C2.67463 16.0478 2.77015 15.5701 2.67463 15.1244C2.64279 14.9652 2.57911 14.7741 2.54726 14.6149C2.51542 14.4557 2.45174 14.2965 2.38806 14.1373C2.29254 13.9781 2.32438 13.8507 2.45174 13.6915C2.61095 13.4687 2.80199 13.2458 2.96119 13.0229C2.99304 12.9592 3.05672 12.8955 3.05672 12.8318C3.18408 12.3861 3.31144 11.9403 3.47065 11.5264C3.78906 10.6667 4.17114 9.83881 4.6806 9.07463C5.19005 8.27861 5.79503 7.60995 6.36816 6.87761C6.62289 6.5592 6.62289 6.14527 6.84577 5.82687C6.90945 5.73134 7.00498 5.66766 7.13234 5.66766C7.2597 5.66766 7.41891 5.60398 7.54627 5.60398C7.67363 5.57214 7.83284 5.57214 7.9602 5.50846C9.01095 4.74428 10.0617 4.1393 11.208 3.72537C11.8448 3.47065 12.5134 3.2796 13.1821 3.15224C13.5005 3.08856 13.8507 3.02488 14.201 2.99303C14.4876 2.96119 14.7741 2.99303 15.0607 2.89751C15.3791 2.77015 15.6338 2.5791 15.9522 2.45174C16.0796 2.48358 16.1751 2.54726 16.2706 2.5791C16.398 2.64279 16.5254 2.70647 16.6846 2.80199C16.7801 2.77015 16.8756 2.83383 16.9711 2.86567C17.0667 2.89751 17.1303 2.89751 17.2259 2.89751C18.4995 2.92935 19.805 3.34328 20.9831 3.85274C22.002 4.26667 22.8935 4.87164 23.8169 5.44478C23.8806 5.47662 23.9124 5.50846 23.9443 5.50846C24.1035 5.5403 24.2627 5.57214 24.4219 5.60398C24.5811 5.63582 24.7403 5.66766 24.8995 5.73134C24.9313 5.73134 24.995 5.79502 24.995 5.82687C25.1542 6.17711 25.2498 6.62289 25.4726 6.94129C25.8229 7.45075 26.2687 7.86468 26.6189 8.34229C27.1602 9.07463 27.606 9.87065 27.9562 10.6985C28.1473 11.1124 28.3065 11.5264 28.4338 11.9721C28.5612 12.3542 28.593 12.8 28.8796 13.0866C29.0706 13.2776 29.2299 13.5642 29.3891 13.8189C29.4209 13.8826 29.4209 13.9463 29.4209 14.0099L29.3891 14.1055C29.2935 14.4239 29.1343 14.7423 29.1025 15.0607C29.1025 15.2836 29.1025 15.4746 29.1025 15.6975C29.1343 17.608 28.7841 19.5821 28.0517 21.3333C27.9881 21.5244 27.797 21.7473 27.797 21.9701V22.193C27.7652 22.5114 27.8607 22.9254 27.606 23.1801C27.4468 23.3393 27.1602 23.5622 26.9373 23.6259C26.7144 23.6896 26.5871 23.9124 26.4597 24.1035C26.2687 24.1035 25.6637 25.0587 25.5045 25.2179C25.1542 25.6 24.7403 25.9502 24.3264 26.3005C23.5303 26.9692 22.607 27.5423 21.7473 28.0517C21.5881 28.1473 21.4607 28.3065 21.3333 28.4657C21.206 28.6249 21.0786 28.8159 20.9194 28.9433C20.8876 28.9751 20.8239 29.007 20.7602 29.007C20.3781 29.007 19.996 28.9433 19.6458 28.9433C19.391 28.9433 19.1682 29.007 18.9453 29.0706C18.0856 29.2935 17.2259 29.3891 16.3343 29.4209C16.3662 29.7711 16.3662 30.0896 16.3025 30.4398C16.2388 30.9174 16.1114 31.395 15.8886 31.809C16.3662 31.809 16.8756 31.7771 17.3532 31.7134C17.9582 31.6497 18.5313 31.5542 19.1363 31.4269C19.4229 31.3632 19.7095 31.2995 20.0279 31.2358C20.5373 31.1085 21.1104 31.2995 21.6199 31.2677C21.6836 31.2677 21.7791 31.2358 21.8109 31.1721C21.8428 31.1403 21.8746 31.0766 21.9065 31.0448C22.193 30.7264 22.4159 30.3124 22.7662 30.1214C22.8299 30.0896 22.9254 30.0259 22.9891 29.994C23.7214 29.6119 24.4537 29.1343 25.1224 28.6567C25.8229 28.1154 26.4915 27.5104 27.1284 26.8736C27.4468 26.5552 27.7333 26.205 28.0199 25.8547C28.1473 25.6955 28.3065 25.5045 28.4338 25.3134C28.5612 25.1542 28.6567 25.0587 28.8159 24.9632C28.8478 24.9632 28.8478 24.9313 28.8796 24.8995C29.0706 24.7085 29.3572 24.5493 29.5801 24.4219C29.7711 24.3264 29.8667 24.1353 29.8667 23.9443C29.8667 23.7214 29.8667 23.4985 29.8667 23.2438V22.9254C29.8667 22.8299 29.8985 22.7662 29.9303 22.6706C30.1851 22.0338 30.4716 21.4289 30.6627 20.7602C30.9493 19.8368 31.1403 18.8816 31.2677 17.9264C31.395 16.9711 31.3632 16.0478 31.3632 15.0925C31.3313 14.9015 31.3313 14.6786 31.395 14.4876C31.5224 14.2328 31.5861 13.9463 31.6816 13.6597L31.7134 13.5642C31.7771 13.596 31.7771 13.5323 31.7134 13.4687Z" fill="#1971BD"/>
<path d="M5.12636 22.1611C6.68656 23.7213 8.31044 25.3134 9.96616 26.9691C9.20199 26.9691 8.43781 26.9691 7.60995 26.9691C7.60995 28.6567 7.60995 30.3124 7.60995 31.9681C5.89054 31.9681 4.26666 31.9681 2.5791 31.9681C2.5791 30.3124 2.5791 28.6885 2.5791 27.0009C1.75124 27.0009 0.98706 27.0009 0.19104 27.0009C1.8786 25.3771 3.53432 23.7532 5.12636 22.1611Z" fill="#1971BD"/>
</g>
<defs>
<clipPath id="clip0">
<rect width="31.7771" height="32" fill="white"/>
</clipPath>
</defs>
</svg>

<svg xmlns="http://www.w3.org/2000/svg" width="32" height="32" fill="none" xmlns:v="https://vecta.io/nano"><g clip-path="url(#A)" fill="#1971bd"><path opacity=".3" d="M6.559 19.487a4.86 4.86 0 0 0 .35.509c.255.191.509.414.764.637a1.16 1.16 0 0 0 .732.287c.127 0 .223 0 .35.032-.764-.605-1.433-1.305-2.038-2.07s-1.051-1.56-1.305-2.515c-.255-1.56-.318-3.152-.127-4.744-.191 1.083-.414 2.133-.318 3.248.159 1.624.7 3.216 1.592 4.617zm18.818-3.98c-.032-.127-.095-.255-.159-.382a7.59 7.59 0 0 0-2.77-3.311 8.57 8.57 0 0 0-4.521-1.465c-.828-.032-1.624.096-2.42.287a7.24 7.24 0 0 0-1.178.382c-.382.127-.764.414-1.146.51-.095.032-.191 0-.255-.064-.255-.223-.127-.796 0-1.083.191-.382.478-.732.828-.987 2.229-1.783 5.317-1.847 7.992-1.305.223.064.478.096.701.159l.032-.096a1.5 1.5 0 0 0-.318-.159c-2.133-.605-4.33-.796-6.496-.191-2.515.701-5.158 2.452-6.05 5.031-.509 1.497-.318 3.216.382 4.617.892 1.751 2.706 3.312 4.649 3.725l.669.159a.25.25 0 0 1 .127.127c0 .032-.064.096-.095.127-1.083.7-2.324.923-3.566.7a3.83 3.83 0 0 1 .828 1.274c1.751.35 3.598.223 5.254-.541 1.083-.478 2.038-1.178 2.834-2.038 1.369-1.465 2.293-3.566 2.324-5.604 0-.095.032-.159.095-.223.064.032.127.064.191.127 1.433 1.114 1.656 3.407 1.305 5.031-.382 1.751-1.369 3.28-2.611 4.521-.095.096-.191.223-.255.318.064.032.159.032.223 0l.669-.509c2.484-2.197 3.885-5.891 2.738-9.138z"/><path d="M20.697 15.921a1.8 1.8 0 0 0-.127-.382c-.318-.732-.892-1.369-1.624-1.719-.605-.287-1.274-.414-1.942-.382-.318.032-.669.064-.987.159-.286.064-.541.255-.796.319-.032 0-.096 0-.127-.032-.255-.223.127-.669.255-.828.255-.223.541-.414.86-.509a4.37 4.37 0 0 1 1.56-.287 6.73 6.73 0 0 1 .828.064c.223.032.478.127.701.095-.032-.032-.096-.064-.159-.064-1.528-.573-3.407-.191-4.617.86-.414.35-.764.796-.923 1.305a2.62 2.62 0 0 0 .191 2.07c.414.764 1.21 1.465 2.038 1.656.096.032.191.032.287.064.032 0 .032.032.064.064 0 0-.032.032-.032.064-.064.032-.127.096-.191.127-.573.318-1.305.287-1.91.032-.541-.223-.987-.573-1.369-.987-.318-.318-.605-.701-.764-1.114-.318-.796-.255-1.656-.191-2.516-.032.478-.159.923-.127 1.433.032.414.096.796.223 1.178.287.764.764 1.433 1.401 1.91.892.7 2.038 1.019 3.152.828a3.83 3.83 0 0 0 2.993-2.547 3.28 3.28 0 0 0 .191-1.114c0-.032.032-.064.032-.096.032 0 .064.032.096.064.541.541.732 1.274.605 2.006-.127.86-.573 1.592-1.21 2.197l-.127.127c.032.032.064.032.096 0 .095-.064.191-.159.287-.223 1.146-.923 1.751-2.388 1.369-3.821zm11.016-2.452l-.509-.732c-.096-.127-.223-.255-.255-.446-.191-.86-.509-1.687-.86-2.452-.382-.828-.796-1.624-1.306-2.356L27.988 6.4c-.127-.191-.287-.35-.414-.509s-.35-.287-.414-.478c-.032-.096-.127-.287-.127-.287l-.223-.541-.191-.446c-.032-.064-.064-.096-.127-.127h-.095c-.127 0-.318-.064-.446-.096a4.51 4.51 0 0 1-.637-.127c-.064-.032-.127-.032-.159-.096l-.159-.127c-.764-.541-1.56-1.051-2.42-1.465-.828-.382-1.687-.732-2.547-.955L18.691.828c-.382-.064-.86-.191-1.274-.159-.095 0-.191 0-.287-.064-.318-.127-.637-.318-.923-.478C16.143.096 16.08 0 15.984 0c-.032 0-.127.032-.127.032l-.828.446c-.127 0-.287.127-.414.127s-.287.032-.414.032l-.987.127c-1.91.318-3.757 1.051-5.413 2.07-.223.127-.414.255-.605.414l-.096.064-.382.287c-.032.032-.064.032-.096.032a6.36 6.36 0 0 1-.828.159c-.159.032-.382.032-.478.223-.191.414-.255.892-.573 1.242L3.248 7.069c-1.051 1.497-1.783 3.12-2.293 4.84l-.096.35a.52.52 0 0 1-.127.223c-.159.255-.382.541-.605.796-.287.318.032.764.127 1.114a3.57 3.57 0 0 1 .127.573v.287l.032 1.91c.032.605.127 1.242.223 1.815.191-.064.382-.127.573-.159a8.38 8.38 0 0 1 1.719-.191l-.127-.7-.127-1.433c0-.446.096-.923 0-1.369l-.127-.509c-.032-.159-.096-.318-.159-.478-.096-.159-.064-.287.064-.446l.509-.669c.032-.064.096-.127.096-.191l.414-1.305c.318-.86.7-1.688 1.21-2.452.509-.796 1.114-1.465 1.688-2.197.255-.318.255-.732.478-1.051.064-.096.159-.159.287-.159s.287-.064.414-.064c.127-.032.287-.032.414-.096 1.051-.764 2.101-1.369 3.248-1.783a10.76 10.76 0 0 1 1.974-.573l1.019-.159c.287-.032.573 0 .86-.096.318-.127.573-.318.891-.446.127.032.223.096.318.127l.414.223c.096-.032.191.032.287.064a.7.7 0 0 0 .255.032c1.274.032 2.579.446 3.757.955 1.019.414 1.91 1.019 2.834 1.592.064.032.096.064.127.064l.478.096c.159.032.318.064.478.127.032 0 .096.064.096.096.159.35.255.796.478 1.114.35.509.796.923 1.146 1.401a11.51 11.51 0 0 1 1.337 2.356 8.71 8.71 0 0 1 .478 1.274c.127.382.159.828.446 1.115.191.191.35.478.509.732.032.064.032.127.032.191l-.032.096c-.096.318-.255.637-.287.955v.637c.032 1.911-.318 3.885-1.051 5.636-.064.191-.255.414-.255.637v.223c-.032.318.064.732-.191.987-.159.159-.446.382-.669.446s-.35.287-.478.478c-.191 0-.796.955-.955 1.114-.35.382-.764.732-1.178 1.083-.796.669-1.719 1.242-2.579 1.751-.159.096-.287.255-.414.414s-.255.35-.414.478c-.032.032-.096.064-.159.064-.382 0-.764-.064-1.114-.064-.255 0-.478.064-.701.127-.86.223-1.719.319-2.611.35.032.35.032.669-.032 1.019-.064.478-.191.955-.414 1.369a11.31 11.31 0 0 0 1.465-.096c.605-.064 1.178-.159 1.783-.287l.892-.191c.509-.127 1.082.064 1.592.032.064 0 .159-.032.191-.096.032-.032.064-.096.096-.127.287-.318.509-.732.86-.923.064-.032.159-.096.223-.127.732-.382 1.465-.86 2.133-1.337.701-.541 1.369-1.146 2.006-1.783.318-.318.605-.669.892-1.019l.414-.541a1.32 1.32 0 0 1 .382-.35c.032 0 .032-.032.064-.064.191-.191.478-.35.701-.478.191-.096.287-.287.287-.478v-.7-.318c0-.096.032-.159.064-.255l.732-1.91c.287-.923.478-1.879.605-2.834s.095-1.879.095-2.834a1.3 1.3 0 0 1 .032-.605c.127-.255.191-.541.287-.828l.032-.096c.064.032.064-.032 0-.095zM5.126 22.161l4.84 4.808H7.61v4.999H2.579v-4.967H.191l4.935-4.84z"/></g><defs><clipPath id="A"><path fill="#fff" d="M0 0h31.777v32H0z"/></clipPath></defs></svg>
